brandFactory_export/1.Light/Enchufe _1Light.svg

<?xml version="1.0" encoding="UTF-8"?>
<svg width="24px" height="24px" viewBox="0 0 24 24" version="1.1" xmlns="http://www.w3.org/2000/svg" xmlns:xlink="http://www.w3.org/1999/xlink">
    <title>1.Light/Enchufe _1Light</title>
    <g id="Symbols" stroke="none" stroke-width="1" fill="none" fill-rule="evenodd">
        <g id="1.Light/Enchufe-_1Light" fill="#5CB615" fill-rule="nonzero">
            <path d="M18.7613445,7.71092437 C18.7613445,10.1848739 17.897479,11.9731092 16.1966387,13.0184874 C16.0487395,13.1092437 15.9579832,13.2672269 15.9579832,13.4420168 L15.9579832,15.2470588 C15.9579832,15.7277311 15.8336134,16.0806723 15.5848739,16.3058824 C15.3394958,16.5310924 14.9529412,16.6453782 14.4386555,16.6453782 L10.3714286,16.6453782 C9.85378151,16.6453782 9.46722689,16.5310924 9.20840336,16.2991597 C8.95294118,16.0773109 8.82521008,15.7243697 8.82521008,15.2504202 L8.82521008,13.4521008 C8.82521008,13.2773109 8.73445378,13.1159664 8.58655462,13.0285714 C6.88907563,11.989916 6.02521008,10.1882353 6.02521008,7.62352941 C6.02521008,7.52941176 6.10252101,7.4487395 6.20336134,7.4487395 L18.589916,7.45546218 C18.687395,7.45546218 18.7680672,7.53277311 18.7680672,7.6302521 C18.7613445,7.62689076 18.7613445,7.71092437 18.7613445,7.71092437 L18.7613445,7.71092437 Z M11.4067227,22.6252101 L13.3764706,22.6252101 L13.3764706,17.6403361 L11.4067227,17.6403361 L11.4067227,22.6252101 L11.4067227,22.6252101 Z M8.03529412,1.71428571 C8.03529412,1.3210084 8.36134454,0.998319328 8.75798319,0.998319328 C9.15798319,0.998319328 9.48403361,1.3210084 9.48403361,1.71428571 L9.48403361,6.45042017 L8.03529412,6.45042017 L8.03529412,1.71428571 L8.03529412,1.71428571 Z M15.1176471,1.71428571 C15.1176471,1.3210084 15.4436975,0.998319328 15.8403361,0.998319328 C16.2403361,0.998319328 16.5663866,1.3210084 16.5663866,1.71428571 L16.5663866,6.45378151 L15.1210084,6.45378151 L15.1176471,1.71428571 Z M18.5865546,6.45378151 L17.5781513,6.45378151 L17.5781513,1.71428571 C17.5781513,0.769747899 16.8016807,0 15.8403361,0 C14.8857143,0 14.1058824,0.766386555 14.1058824,1.71428571 L14.1058824,6.45378151 L10.4957983,6.45042017 L10.4957983,1.71428571 C10.4957983,0.769747899 9.71932773,0 8.75798319,0 C7.8,0 7.02352941,0.766386555 7.02352941,1.71428571 L7.02352941,6.45042017 L6.2,6.45042017 C5.54453782,6.45042017 5.01008403,6.97478992 5.01008403,7.67394958 C5.01008403,11.0588235 6.48235294,12.8201681 7.81344538,13.7210084 L7.81344538,15.2470588 C7.81344538,16.0134454 8.06554622,16.6352941 8.53277311,17.0386555 C8.97310924,17.4386555 9.59159664,17.6403361 10.3747899,17.6403361 L10.3983193,17.6403361 L10.3983193,22.712605 C10.3983193,23.2134454 10.8117647,23.6235501 11.3226891,23.6235501 L13.4672269,23.6235501 C13.9747899,23.6268908 14.3882353,23.2201681 14.3915966,22.712605 L14.3915966,17.6403361 L14.4453782,17.6403361 C15.2218487,17.6403361 15.8369748,17.4386555 16.2739496,17.0386555 C16.7344538,16.6285714 16.9764706,16.0067227 16.9764706,15.2436975 L16.9764706,13.707563 C18.307563,12.8033613 19.7798319,11.0521008 19.7798319,7.70756303 L19.7798319,7.62352941 C19.7731092,6.98151261 19.2420168,6.45378151 18.5865546,6.45378151 Z" id="Enchufe-_1Light"></path>
        </g>
    </g>
</svg>

<svg width="24" height="24" viewBox="0 0 24 24" xmlns="http://www.w3.org/2000/svg"><path d="M18.761 7.71c0 2.475-.864 4.263-2.564 5.308a.495.495 0 00-.239.424v1.805c0 .48-.124.834-.373 1.059-.246.225-.632.34-1.146.34H10.37c-.517 0-.904-.115-1.163-.347-.255-.222-.383-.575-.383-1.049v-1.798a.49.49 0 00-.238-.423c-1.698-1.04-2.562-2.84-2.562-5.405 0-.095.078-.175.178-.175l12.387.006c.097 0 .178.078.178.175-.007-.003-.007.08-.007.08zm-7.354 14.915h1.97V17.64h-1.97v4.985zM8.035 1.715c0-.394.326-.717.723-.717.4 0 .726.323.726.716V6.45H8.035V1.714zm7.083 0c0-.394.326-.717.722-.717.4 0 .726.323.726.716v4.74h-1.445l-.003-4.74zm3.469 4.739h-1.009v-4.74C17.578.77 16.802 0 15.84 0c-.954 0-1.734.766-1.734 1.714v4.74l-3.61-.004V1.714C10.496.77 9.719 0 8.758 0 7.8 0 7.024.766 7.024 1.714V6.45H6.2c-.655 0-1.19.525-1.19 1.224 0 3.385 1.472 5.146 2.803 6.047v1.526c0 .766.253 1.388.72 1.792.44.4 1.059.601 1.842.601h.023v5.073c0 .5.414.91.925.91h2.144a.917.917 0 00.925-.91V17.64h.053c.777 0 1.392-.201 1.829-.601.46-.41.702-1.032.702-1.795v-1.536c1.332-.905 2.804-2.656 2.804-6v-.084a1.191 1.191 0 00-1.193-1.17z" fill="#5CB615" fill-rule="nonzero"/></svg>
